!!!OTL: "Kuhreigen" AUF MEINER ALP DA LEB ICH
!!!ARE: Europa, Mitteleuropa, Schweiz
!!!SCT: Z1291
!!!YEM: Copyright 1995, estate of Helmut Schaffrath.
**kern
*ICvox
*Ivox
*M3/8
*k[f#]
*G:
{8g
8b
8cc
=1
4dd
24ee
24dd
24cc
=2
4dd
24ee
24dd
24cc
=3
16dd
16b
8g
8a
=4
4g
8r}
=5
{8g
8b
8cc
=6
4dd
24ee
24dd
24cc
=7
4dd
24ee
24dd
24cc
=8
16dd
16b
8g
8a
=9
4g
8r}
=10
{8a
8d
8d
=11
4b
8g
=12
8a
8d
8d
=13
4b
8g
=14
8a
4d}
=15
{8g
8b
8cc
=16
4dd
24b
24g
24a
=17
4.d}
=18
{8g
8b
8cc
=19
4dd
24b
24g
24a
=20
4.g}
==
!!!AGN: Handwerker -, Bauern - Lied
!!!ONB: ESAC (Essen Associative Code) Database: ZUCCAL
!!!AMT: simple triple
!!!AIN: vox
!!!EED: Helmut Schaffrath
!!!EEV: 1.0
*-
